!!!OTL: Dayu luolai xiyu ling
!!!ARE: Asia, China, Fujian, Changding, Hetian
!! II, 616
!!!SCT: C1539
!!!YEM: Copyright 1995, estate of Helmut Schaffrath.
**kern
*ICvox
*Ivox
!! Mixed meters:  2/4; 3/4
*MZ
*k[f#c#]
*D:
{8ee
8b
8dd
8b
=1
8b
8ee
8ee
8b
=2
2a}
=3
{8a
8dd
8b
8r
=4
8b
8ee
8dd
8ee
=5
8dd
8b
4a}
=6
{8a
8ee
8dd
8b
=7
8b
8ee
8ee
8ee
=8
8dd
4.b
=9
2a}
=10
{8a
8a
8dd
8b
4r
=11
*M2/4
8b
8ee
8dd
8dd
=12
8b
4.a
=13
8a
8a
4a}
==
!!!AGN: Shange. NannÅ qing
!!!AMT: irregular
!!!AIN: vox
!!!EED: Helmut Schaffrath
!!!EEV: 1.0
*-
